;FLAVOR:Marlin
;TIME:6405
;Filament used: 3.68305m
;Layer height: 0.21875
;Generated with Cura_SteamEngine 3.3.1
M190 S65
M104 S205
M109 S205
M82 ;absolute extrusion mode
G21;(metric values)
G90;(absolute positioning)
M82;(set extruder to absolute mode)
M107;(start with the fan off)
G28;(Home the printer)
G92 E0;(Reset the extruder to 0)
G0 Z5 E5 F500;(Move up and prime the nozzle)
G0 X-1 Z0;(Move outside the printable area)
G1 Y60 E8 F500;(Draw a priming/wiping line to the rear)
G1 X-1;(Move a little closer to the print area)
G1 Y10 E16 F500;(draw more priming/wiping)
G1 E15 F250;(Small retract)
G92 E0;(Zero the extruder)
G92 E0
G1 F2400 E-2.5
;LAYER_COUNT:248
;LAYER:0
M107
G0 F4320 X13.516 Y14.967 Z0.262
;TYPE:SKIRT
G1 F2400 E0
G1 F1800 X13.926 Y14.681 E0.01906
G1 X14.497 Y14.322 E0.04477
G1 X15.056 Y14.017 E0.06905
G1 X15.523 Y13.827 E0.08827
G1 X16.158 Y13.605 E0.11392
G1 X16.771 Y13.433 E0.13819
G1 X17.271 Y13.352 E0.1575
G1 X17.944 Y13.277 E0.18332
G1 X18.506 Y13.246 E0.20478
G1 X42.999 Y13.246 E1.13856
G1 X43.565 Y13.278 E1.16017
G1 X44.233 Y13.353 E1.1858
G1 X44.86 Y13.463 E1.21007
G1 X45.342 Y13.605 E1.22922
G1 X45.977 Y13.827 E1.25487
G1 X46.564 Y14.075 E1.27916
G1 X47.007 Y14.324 E1.29854
G1 X47.577 Y14.683 E1.32422
G1 X48.093 Y15.055 E1.34847
G1 X48.461 Y15.388 E1.36739
G1 X48.933 Y15.86 E1.39284
G1 X49.354 Y16.338 E1.41712
G1 X49.638 Y16.744 E1.43601
G1 X49.997 Y17.314 E1.4617
G1 X50.302 Y17.873 E1.48597
G1 X50.493 Y18.342 E1.50528
G1 X50.716 Y18.979 E1.53101
G1 X50.888 Y19.592 E1.55528
G1 X50.97 Y20.094 E1.57467
G1 X51.044 Y20.758 E1.60015
G1 X51.075 Y21.32 E1.6216
G1 X51.075 Y35.32 E2.15535
G1 X51.044 Y35.88 E2.17673
G1 X50.97 Y36.546 E2.20228
G1 X50.86 Y37.174 E2.22658
G1 X50.716 Y37.663 E2.24602
G1 X50.493 Y38.3 E2.27175
G1 X50.245 Y38.887 E2.29604
G1 X49.999 Y39.324 E2.31516
G1 X49.64 Y39.895 E2.34087
G1 X49.268 Y40.412 E2.36516
G1 X48.933 Y40.783 E2.38421
G1 X48.461 Y41.255 E2.40966
G1 X47.983 Y41.676 E2.43395
G1 X47.571 Y41.964 E2.45311
G1 X47.001 Y42.322 E2.47877
G1 X46.442 Y42.626 E2.50303
G1 X45.977 Y42.815 E2.52217
G1 X45.342 Y43.037 E2.54781
G1 X44.729 Y43.209 E2.57209
G1 X44.233 Y43.289 E2.59124
G1 X43.565 Y43.364 E2.61687
G1 X42.999 Y43.396 E2.63848
G1 X18.501 Y43.396 E3.57245
G1 X17.935 Y43.364 E3.59407
G1 X17.267 Y43.289 E3.61969
G1 X16.64 Y43.179 E3.64396
G1 X16.158 Y43.037 E3.66312
G1 X15.523 Y42.815 E3.68876
G1 X14.936 Y42.567 E3.71306
G1 X14.502 Y42.324 E3.73202
G1 X13.931 Y41.966 E3.75772
G1 X13.414 Y41.594 E3.782
G1 X13.038 Y41.255 E3.8013
G1 X12.566 Y40.783 E3.82675
G1 X12.145 Y40.305 E3.85103
G1 X11.855 Y39.89 E3.87033
G1 X11.497 Y39.319 E3.89603
G1 X11.193 Y38.759 E3.92032
G1 X11.007 Y38.3 E3.9392
G1 X10.784 Y37.663 E3.96493
G1 X10.612 Y37.05 E3.9892
G1 X10.53 Y36.548 E4.0086
G1 X10.456 Y35.884 E4.03407
G1 X10.425 Y35.322 E4.05553
G1 X10.425 Y21.322 E4.58927
G1 X10.456 Y20.762 E4.61065
G1 X10.53 Y20.096 E4.6362
G1 X10.64 Y19.468 E4.6605
G1 X10.784 Y18.979 E4.67994
G1 X11.007 Y18.342 E4.70567
G1 X11.255 Y17.755 E4.72996
G1 X11.499 Y17.32 E4.74898
G1 X11.857 Y16.75 E4.77464
G1 X12.229 Y16.233 E4.79892
G1 X12.566 Y15.86 E4.81809
G1 X12.995 Y15.431 E4.84122
G0 F1620 X13.038 Y15.388
G0 X13.516 Y14.967
G0 F4320 X13.748 Y15.231
G1 F2400 E4.86779
G1 F1800 X14.112 Y14.977 E4.88471
G1 X14.683 Y14.618 E4.91043
G1 X15.223 Y14.325 E4.93385
G1 X15.639 Y14.158 E4.95094
G1 X16.274 Y13.936 E4.97658
G1 X16.866 Y13.771 E5.00001
G1 X17.31 Y13.7 E5.01716
G1 X17.983 Y13.625 E5.04297
G1 X18.506 Y13.596 E5.06294
G1 X42.999 Y13.596 E5.99672
G1 X43.526 Y13.626 E6.01685
G1 X44.194 Y13.701 E6.04248
G1 X44.799 Y13.809 E6.06591
G1 X45.226 Y13.936 E6.08289
G1 X45.861 Y14.158 E6.10854
G1 X46.427 Y14.398 E6.13197
G1 X46.82 Y14.62 E6.14918
G1 X47.39 Y14.979 E6.17486
G1 X47.888 Y15.34 E6.19831
G1 X48.213 Y15.636 E6.21507
G1 X48.685 Y16.108 E6.24052
G1 X49.09 Y16.57 E6.26394
G1 X49.342 Y16.931 E6.28073
G1 X49.701 Y17.501 E6.30641
G1 X49.994 Y18.041 E6.32983
G1 X50.163 Y18.458 E6.34699
G1 X50.386 Y19.095 E6.37272
G1 X50.551 Y19.687 E6.39615
G1 X50.622 Y20.133 E6.41336
G1 X50.696 Y20.797 E6.43884
G1 X50.725 Y21.32 E6.45881
G1 X50.725 Y35.32 E6.99255
G1 X50.696 Y35.842 E7.01248
G1 X50.622 Y36.508 E7.03803
G1 X50.515 Y37.113 E7.06145
G1 X50.386 Y37.547 E7.07871
G1 X50.163 Y38.184 E7.10444
G1 X49.922 Y38.75 E7.12789
G1 X49.703 Y39.138 E7.14488
G1 X49.344 Y39.709 E7.17059
G1 X48.984 Y40.207 E7.19402
G1 X48.685 Y40.535 E7.21094
G1 X48.213 Y41.007 E7.23639
G1 X47.751 Y41.412 E7.25981
G1 X47.385 Y41.667 E7.27682
G1 X46.815 Y42.025 E7.30248
G1 X46.275 Y42.318 E7.3259
G1 X45.861 Y42.484 E7.34291
G1 X45.226 Y42.706 E7.36856
G1 X44.634 Y42.871 E7.39199
G1 X44.194 Y42.941 E7.40897
G1 X43.526 Y43.016 E7.4346
G1 X42.999 Y43.046 E7.45472
G1 X18.501 Y43.046 E8.38869
G1 X17.974 Y43.016 E8.40882
G1 X17.306 Y42.941 E8.43445
G1 X16.701 Y42.833 E8.45788
G1 X16.274 Y42.706 E8.47486
G1 X15.639 Y42.484 E8.50051
G1 X15.073 Y42.244 E8.52394
G1 X14.688 Y42.027 E8.54079
G1 X14.117 Y41.669 E8.56649
G1 X13.619 Y41.31 E8.58989
G1 X13.286 Y41.007 E8.60706
G1 X12.814 Y40.535 E8.6325
G1 X12.409 Y40.073 E8.65593
G1 X12.152 Y39.704 E8.67307
G1 X11.794 Y39.133 E8.69876
G1 X11.502 Y38.592 E8.7222
G1 X11.337 Y38.184 E8.73898
G1 X11.114 Y37.547 E8.76471
G1 X10.949 Y36.955 E8.78814
G1 X10.878 Y36.509 E8.80536
G1 X10.804 Y35.845 E8.83083
G1 X10.775 Y35.322 E8.8508
G1 X10.775 Y21.322 E9.38454
G1 X10.804 Y20.8 E9.40447
G1 X10.878 Y20.134 E9.43002
G1 X10.985 Y19.529 E9.45344
G1 X11.114 Y19.095 E9.47071
G1 X11.337 Y18.458 E9.49644
G1 X11.578 Y17.892 E9.51989
G1 X11.796 Y17.506 E9.53679
G1 X12.154 Y16.936 E9.56245
G1 X12.514 Y16.438 E9.58588
G1 X12.814 Y16.108 E9.60288
G1 X13.228 Y15.694 E9.6252
G0 F1620 X13.286 Y15.636
G0 X13.748 Y15.231
G0 F4320 X13.979 Y15.495
G1 F2400 E9.65178
G1 F1800 X14.298 Y15.273 E9.66659
G1 X14.869 Y14.914 E9.69231
G1 X15.39 Y14.634 E9.71486
G1 X15.754 Y14.488 E9.72981
G1 X16.389 Y14.266 E9.75545
G1 X16.959 Y14.109 E9.77799
G1 X17.348 Y14.048 E9.79301
G1 X18.021 Y13.973 E9.81882
G1 X18.506 Y13.946 E9.83734
G1 X42.999 Y13.946 E10.77112
G1 X43.487 Y13.973 E10.78976
G1 X44.155 Y14.048 E10.81538
G1 X44.737 Y14.154 E10.83794
G1 X45.111 Y14.266 E10.85282
G1 X45.746 Y14.488 E10.87847
G1 X46.29 Y14.721 E10.90103
G1 X46.634 Y14.916 E10.9161
G1 X47.204 Y15.275 E10.94179
G1 X47.681 Y15.623 E10.9643
G1 X47.966 Y15.883 E10.979
G1 X48.438 Y16.355 E11.00445
G1 X48.826 Y16.801 E11.02699
G1 X49.046 Y17.117 E11.04167
G1 X49.405 Y17.687 E11.06735
G1 X49.686 Y18.208 E11.08992
G1 X49.832 Y18.573 E11.10491
G1 X50.055 Y19.21 E11.13064
G1 X50.212 Y19.78 E11.15318
G1 X50.274 Y20.171 E11.16827
G1 X50.348 Y20.835 E11.19374
G1 X50.375 Y21.32 E11.21226
G1 X50.375 Y35.32 E11.746
G1 X50.348 Y35.803 E11.76444
G1 X50.274 Y36.469 E11.78999
G1 X50.169 Y37.051 E11.81254
G1 X50.055 Y37.432 E11.8277
G1 X49.832 Y38.069 E11.85343
G1 X49.6 Y38.612 E11.87594
G1 X49.407 Y38.952 E11.89085
G1 X49.048 Y39.523 E11.91656
G1 X48.7 Y40.001 E11.9391
G1 X48.438 Y40.288 E11.95392
G1 X47.966 Y40.76 E11.97937
G1 X47.52 Y41.148 E12.0019
G1 X47.199 Y41.371 E12.01681
G1 X46.629 Y41.729 E12.04247
G1 X46.108 Y42.009 E12.06502
G1 X45.746 Y42.154 E12.07988
G1 X45.111 Y42.376 E12.10553
G1 X44.541 Y42.533 E12.12807
G1 X44.155 Y42.594 E12.14297
G1 X43.487 Y42.669 E12.1686
G1 X42.999 Y42.696 E12.18723
G1 X18.501 Y42.696 E13.1212
G1 X18.013 Y42.669 E13.13983
G1 X17.345 Y42.594 E13.16546
G1 X16.763 Y42.488 E13.18801
G1 X16.389 Y42.376 E13.2029
G1 X15.754 Y42.154 E13.22854
G1 X15.21 Y41.921 E13.25111
G1 X14.874 Y41.731 E13.26582
G1 X14.303 Y41.373 E13.29152
G1 X13.824 Y41.025 E13.31409
G1 X13.533 Y40.76 E13.32909
G1 X13.061 Y40.288 E13.35454
G1 X12.673 Y39.842 E13.37708
G1 X12.448 Y39.518 E13.39212
G1 X12.09 Y38.947 E13.41781
G1 X11.811 Y38.426 E13.44034
G1 X11.668 Y38.069 E13.45501
G1 X11.445 Y37.432 E13.48074
G1 X11.288 Y36.862 E13.50328
G1 X11.226 Y36.471 E13.51837
G1 X11.152 Y35.807 E13.54384
G1 X11.125 Y35.322 E13.56236
G1 X11.125 Y21.322 E14.0961
G1 X11.152 Y20.839 E14.11454
G1 X11.226 Y20.173 E14.14009
G1 X11.331 Y19.591 E14.16264
G1 X11.445 Y19.21 E14.1778
G1 X11.668 Y18.573 E14.20353
G1 X11.9 Y18.03 E14.22604
G1 X12.092 Y17.692 E14.24086
G1 X12.45 Y17.122 E14.26652
G1 X12.798 Y16.644 E14.28906
G1 X13.061 Y16.355 E14.30396
G1 X13.458 Y15.958 E14.32537
G0 F1620 X13.533 Y15.883
G0 X13.979 Y15.495
G0 F4320 X14.209 Y15.759
G1 F2400 E14.35194
G1 F1800 X14.485 Y15.57 E14.36469
G1 X15.056 Y15.211 E14.39041
G1 X15.556 Y14.943 E14.41203
G1 X15.87 Y14.819 E14.4249
G1 X16.505 Y14.597 E14.45055
G1 X17.052 Y14.448 E14.47216
G1 X17.387 Y14.396 E14.48509
G1 X18.06 Y14.321 E14.51091
G1 X18.506 Y14.296 E14.52794
G1 X42.999 Y14.296 E15.46172
G1 X43.448 Y14.321 E15.47886
G1 X44.116 Y14.396 E15.50449
G1 X44.674 Y14.499 E15.52612
G1 X44.995 Y14.597 E15.53892
G1 X45.63 Y14.819 E15.56456
G1 X46.151 Y15.043 E15.58618
G1 X46.447 Y15.212 E15.59918
G1 X47.017 Y15.571 E15.62486
G1 X47.474 Y15.906 E15.64646
G1 X47.718 Y16.131 E15.65912
G1 X48.19 Y16.603 E15.68457
G1 X48.562 Y17.031 E15.70618
G1 X48.75 Y17.304 E15.71882
G1 X49.109 Y17.874 E15.7445
G1 X49.376 Y18.374 E15.76611
G1 X49.502 Y18.689 E15.77905
G1 X49.725 Y19.326 E15.80478
G1 X49.874 Y19.873 E15.82639
G1 X49.926 Y20.21 E15.83939
G1 X50 Y20.874 E15.86486
G1 X50.025 Y21.32 E15.88189
G1 X50.025 Y35.32 E16.41564
G1 X50 Y35.764 E16.43259
G1 X49.926 Y36.43 E16.45814
G1 X49.824 Y36.988 E16.47976
G1 X49.725 Y37.316 E16.49282
G1 X49.502 Y37.953 E16.51856
G1 X49.277 Y38.474 E16.54019
G1 X49.11 Y38.765 E16.55298
G1 X48.751 Y39.336 E16.5787
G1 X48.417 Y39.794 E16.60031
G1 X48.19 Y40.04 E16.61307
G1 X47.718 Y40.512 E16.63852
G1 X47.29 Y40.884 E16.66014
G1 X47.013 Y41.074 E16.67294
G1 X46.443 Y41.432 E16.6986
G1 X45.942 Y41.7 E16.72027
G1 X45.63 Y41.823 E16.73305
G1 X44.995 Y42.045 E16.7587
G1 X44.448 Y42.194 E16.78031
G1 X44.116 Y42.246 E16.79312
G1 X43.448 Y42.321 E16.81875
G1 X42.999 Y42.346 E16.83589
G1 X18.501 Y42.346 E17.76987
G1 X18.052 Y42.321 E17.78701
G1 X17.384 Y42.246 E17.81264
G1 X16.826 Y42.143 E17.83427
G1 X16.505 Y42.045 E17.84707
G1 X15.87 Y41.823 E17.87271
G1 X15.349 Y41.599 E17.89433
G1 X15.06 Y41.434 E17.90702
G1 X14.489 Y41.076 E17.93271
G1 X14.031 Y40.742 E17.95432
G1 X13.781 Y40.512 E17.96728
G1 X13.309 Y40.04 E17.99272
G1 X12.937 Y39.612 E18.01434
G1 X12.745 Y39.332 E18.02729
G1 X12.387 Y38.761 E18.05298
G1 X12.12 Y38.261 E18.07459
G1 X11.998 Y37.953 E18.08722
G1 X11.775 Y37.316 E18.11295
G1 X11.626 Y36.769 E18.13456
G1 X11.574 Y36.432 E18.14756
G1 X11.5 Y35.768 E18.17304
G1 X11.475 Y35.322 E18.19007
G1 X11.475 Y21.322 E18.72381
G1 X11.5 Y20.878 E18.74076
G1 X11.574 Y20.212 E18.76631
G1 X11.676 Y19.654 E18.78794
G1 X11.775 Y19.326 E18.801
G1 X11.998 Y18.689 E18.82673
G1 X12.223 Y18.168 E18.84836
G1 X12.389 Y17.878 E18.8611
G1 X12.747 Y17.308 E18.88676
G1 X13.081 Y16.85 E18.90838
G1 X13.309 Y16.603 E18.92119
G1 X13.69 Y16.222 E18.94173
G0 F1620 X13.781 Y16.131
G0 X14.209 Y15.759
G0 F4320 X14.439 Y16.025
G1 F2400 E18.96831
G1 F1800 X14.671 Y15.866 E18.97903
G1 X15.242 Y15.507 E19.00474
G1 X15.721 Y15.253 E19.02541
G1 X15.985 Y15.149 E19.03623
G1 X16.62 Y14.927 E19.06188
G1 X17.143 Y14.786 E19.08253
G1 X17.426 Y14.744 E19.09343
G1 X18.099 Y14.669 E19.11925
G1 X18.506 Y14.646 E19.13479
G1 X42.999 Y14.646 E20.06857
G1 X43.409 Y14.669 E20.08423
G1 X44.077 Y14.744 E20.10986
G1 X44.61 Y14.844 E20.13053
G1 X44.88 Y14.927 E20.1413
G1 X45.515 Y15.149 E20.16695
G1 X46.012 Y15.365 E20.18761
G1 X46.261 Y15.508 E20.19855
G1 X46.831 Y15.867 E20.22424
G1 X47.266 Y16.189 E20.24487
G1 X47.471 Y16.378 E20.2555
G1 X47.943 Y16.85 E20.28095
G1 X48.296 Y17.261 E20.3016
G1 X48.454 Y17.49 E20.31221
G1 X48.813 Y18.06 E20.33789
G1 X49.067 Y18.539 E20.35856
G1 X49.172 Y18.805 E20.36946
G1 X49.395 Y19.442 E20.39519
G1 X49.535 Y19.965 E20.41584
G1 X49.578 Y20.249 E20.42679
G1 X49.652 Y20.913 E20.45226
G1 X49.675 Y21.32 E20.4678
G1 X49.675 Y35.32 E21.00154
G1 X49.653 Y35.726 E21.01704
G1 X49.579 Y36.392 E21.04259
G1 X49.479 Y36.924 E21.06323
G1 X49.395 Y37.2 E21.07423
G1 X49.172 Y37.837 E21.09996
G1 X48.955 Y38.334 E21.12063
G1 X48.814 Y38.579 E21.13141
G1 X48.455 Y39.15 E21.15712
G1 X48.134 Y39.586 E21.17776
G1 X47.943 Y39.793 E21.1885
G1 X47.471 Y40.265 E21.21395
G1 X47.06 Y40.618 E21.23461
G1 X46.827 Y40.778 E21.24538
G1 X46.257 Y41.136 E21.27104
G1 X45.778 Y41.39 E21.29171
G1 X45.515 Y41.493 E21.30248
G1 X44.88 Y41.715 E21.32813
G1 X44.357 Y41.856 E21.34878
G1 X44.077 Y41.898 E21.35957
G1 X43.409 Y41.973 E21.3852
G1 X42.999 Y41.996 E21.40086
G1 X18.501 Y41.996 E22.33483
G1 X18.091 Y41.973 E22.35048
G1 X17.423 Y41.898 E22.37611
G1 X16.89 Y41.798 E22.39678
G1 X16.62 Y41.715 E22.40755
G1 X15.985 Y41.493 E22.4332
G1 X15.488 Y41.277 E22.45386
G1 X15.246 Y41.138 E22.4645
G1 X14.675 Y40.78 E22.49019
G1 X14.238 Y40.459 E22.51087
G1 X14.028 Y40.265 E22.52177
G1 X13.556 Y39.793 E22.54721
G1 X13.203 Y39.382 E22.56787
G1 X13.041 Y39.146 E22.57878
G1 X12.683 Y38.575 E22.60448
G1 X12.43 Y38.096 E22.62513
G1 X12.328 Y37.837 E22.63574
G1 X12.105 Y37.2 E22.66147
G1 X11.965 Y36.677 E22.68211
G1 X11.922 Y36.393 E22.69306
G1 X11.848 Y35.729 E22.71853
G1 X11.825 Y35.322 E22.73408
G1 X11.825 Y21.322 E23.26782
G1 X11.847 Y20.916 E23.28332
G1 X11.921 Y20.25 E23.30887
G1 X12.021 Y19.718 E23.3295
G1 X12.105 Y19.442 E23.3405
G1 X12.328 Y18.805 E23.36623
G1 X12.545 Y18.308 E23.38691
G1 X12.685 Y18.064 E23.39763
G1 X13.043 Y17.494 E23.42329
G1 X13.364 Y17.058 E23.44394
G1 X13.556 Y16.85 E23.45473
G1 X13.918 Y16.488 E23.47424
G0 F1620 X14.028 Y16.378
G0 X14.439 Y16.025
G0 F4320 X14.857 Y16.162
G1 F2400 E23.50082
G1 F1800 X15.428 Y15.803 E23.52653
G1 X16.101 Y15.479 E23.55501
G1 X16.736 Y15.257 E23.58065
G1 X17.465 Y15.091 E23.60916
G1 X18.138 Y15.016 E23.63497
G1 X18.506 Y14.996 E23.64903
G1 X42.999 Y14.996 E24.58281
G1 X43.37 Y15.017 E24.59697
G1 X44.038 Y15.092 E24.6226
G1 X44.764 Y15.257 E24.65098
G1 X45.399 Y15.479 E24.67663
G1 X46.074 Y15.805 E24.70521
G1 X46.644 Y16.164 E24.73089
G1 X47.223 Y16.626 E24.75913
G1 X47.695 Y17.098 E24.78458
G1 X48.157 Y17.677 E24.81282
G1 X48.516 Y18.247 E24.8385
G1 X48.841 Y18.92 E24.86699
G1 X49.064 Y19.557 E24.89272
G1 X49.231 Y20.288 E24.92131
G1 X49.305 Y20.952 E24.94678
G1 X49.325 Y21.32 E24.96083
G1 X49.325 Y35.32 E25.49458
G1 X49.305 Y35.687 E25.50859
G1 X49.231 Y36.353 E25.53413
G1 X49.064 Y37.085 E25.56276
G1 X48.841 Y37.722 E25.58849
G1 X48.518 Y38.393 E25.61688
G1 X48.159 Y38.964 E25.64259
G1 X47.695 Y39.545 E25.67094
G1 X47.223 Y40.017 E25.69639
G1 X46.64 Y40.482 E25.72482
G1 X46.07 Y40.84 E25.75048
G1 X45.399 Y41.163 E25.77887
G1 X44.764 Y41.385 E25.80452
G1 X44.038 Y41.55 E25.8329
G1 X43.37 Y41.625 E25.85853
G1 X42.999 Y41.646 E25.8727
G1 X18.501 Y41.646 E26.80667
G1 X18.13 Y41.625 E26.82084
G1 X17.462 Y41.55 E26.84646
G1 X16.736 Y41.385 E26.87485
G1 X16.101 Y41.163 E26.90049
G1 X15.432 Y40.841 E26.9288
G1 X14.861 Y40.483 E26.95449
G1 X14.276 Y40.017 E26.98301
G1 X13.804 Y39.545 E27.00846
G1 X13.338 Y38.96 E27.03697
G1 X12.98 Y38.389 E27.06266
G1 X12.659 Y37.722 E27.09088
G1 X12.436 Y37.085 E27.11661
G1 X12.269 Y36.354 E27.1452
G1 X12.195 Y35.69 E27.17067
G1 X12.175 Y35.322 E27.18472
G1 X12.175 Y21.322 E27.71846
G1 X12.195 Y20.955 E27.73248
G1 X12.269 Y20.289 E27.75802
G1 X12.436 Y19.557 E27.78665
G1 X12.659 Y18.92 E27.81238
G1 X12.981 Y18.251 E27.84068
G1 X13.339 Y17.681 E27.86635
G1 X13.804 Y17.098 E27.89478
G1 X14.276 Y16.626 E27.92023
G1 X14.312 Y16.597 E27.92199
G0 F1620 X14.857 Y16.162
G0 F4320 X15.044 Y16.458
G1 F2400 E27.94856
G1 F1800 X15.615 Y16.099 E27.97427
G1 X16.216 Y15.81 E27.9997
G1 X16.851 Y15.588 E28.02534
G1 X17.504 Y15.439 E28.05088
G1 X18.177 Y15.364 E28.0767
G1 X18.506 Y15.346 E28.08926
G1 X42.999 Y15.346 E29.02304
G1 X43.331 Y15.365 E29.03572
G1 X43.999 Y15.44 E29.06134
G1 X44.649 Y15.588 E29.08676
G1 X45.284 Y15.81 E29.11241
G1 X45.887 Y16.101 E29.13793
G1 X46.457 Y16.46 E29.16361
G1 X46.976 Y16.873 E29.1889
G1 X47.448 Y17.345 E29.21435
G1 X47.861 Y17.864 E29.23964
G1 X48.22 Y18.434 E29.26532
G1 X48.511 Y19.036 E29.29081
G1 X48.734 Y19.673 E29.31654
G1 X48.883 Y20.326 E29.34207
G1 X48.957 Y20.99 E29.36755
