;FLAVOR:Marlin
;TIME:5735
;Filament used: 3.4062m
;Layer height: 0.175
;Generated with Cura_SteamEngine 3.3.1
M190 S65
M104 S210
M109 S210
M82 ;absolute extrusion mode
G21;(metric values)
G90;(absolute positioning)
M82;(set extruder to absolute mode)
M107;(start with the fan off)
G28;(Home the printer)
G92 E0;(Reset the extruder to 0)
G0 Z5 E5 F500;(Move up and prime the nozzle)
G0 X-1 Z0;(Move outside the printable area)
G1 Y60 E8 F500;(Draw a priming/wiping line to the rear)
G1 X-1;(Move a little closer to the print area)
G1 Y10 E16 F500;(draw more priming/wiping)
G1 E15 F250;(Small retract)
G92 E0;(Zero the extruder)
G92 E0
G1 F2400 E-2.5
;LAYER_COUNT:309
;LAYER:0
M107
G0 F4320 X11.847 Y14.703 Z0.262
;TYPE:SKIRT
G1 F2400 E0
G1 F1800 X12.259 Y14.415 E0.01916
G1 X12.829 Y14.057 E0.04483
G1 X13.388 Y13.753 E0.06909
G1 X13.855 Y13.564 E0.08829
G1 X14.491 Y13.342 E0.11397
G1 X15.105 Y13.17 E0.13828
G1 X15.601 Y13.089 E0.15744
G1 X16.273 Y13.014 E0.18322
G1 X16.836 Y12.983 E0.20472
G1 X41.329 Y12.983 E1.1385
G1 X41.895 Y13.015 E1.16011
G1 X42.563 Y13.09 E1.18574
G1 X43.19 Y13.2 E1.21001
G1 X43.672 Y13.342 E1.22917
G1 X44.307 Y13.564 E1.25481
G1 X44.894 Y13.812 E1.27911
G1 X45.328 Y14.055 E1.29807
G1 X45.899 Y14.413 E1.32376
G1 X46.416 Y14.785 E1.34805
G1 X46.792 Y15.124 E1.36735
G1 X47.264 Y15.596 E1.3928
G1 X47.685 Y16.074 E1.41708
G1 X47.975 Y16.489 E1.43638
G1 X48.333 Y17.06 E1.46207
G1 X48.637 Y17.62 E1.48637
G1 X48.823 Y18.079 E1.50525
G1 X49.046 Y18.716 E1.53098
G1 X49.218 Y19.329 E1.55525
G1 X49.3 Y19.831 E1.57464
G1 X49.374 Y20.495 E1.60012
G1 X49.405 Y21.057 E1.62157
G1 X49.405 Y35.057 E2.15532
G1 X49.374 Y35.618 E2.17674
G1 X49.3 Y36.283 E2.20225
G1 X49.19 Y36.911 E2.22655
G1 X49.046 Y37.399 E2.24595
G1 X48.823 Y38.036 E2.27168
G1 X48.575 Y38.623 E2.29597
G1 X48.333 Y39.055 E2.31485
G1 X47.975 Y39.626 E2.34055
G1 X47.603 Y40.143 E2.36483
G1 X47.264 Y40.519 E2.38413
G1 X46.792 Y40.991 E2.40958
G1 X46.314 Y41.412 E2.43386
G1 X45.899 Y41.702 E2.45316
G1 X45.328 Y42.06 E2.47886
G1 X44.768 Y42.364 E2.50315
G1 X44.307 Y42.551 E2.52212
G1 X43.672 Y42.773 E2.54776
G1 X43.059 Y42.945 E2.57204
G1 X42.571 Y43.024 E2.59088
G1 X41.903 Y43.1 E2.61651
G1 X41.329 Y43.133 E2.63843
G1 X16.831 Y43.133 E3.57241
G1 X16.256 Y43.1 E3.59436
G1 X15.589 Y43.024 E3.61996
G1 X14.962 Y42.913 E3.64423
G1 X14.491 Y42.773 E3.66297
G1 X13.855 Y42.551 E3.68865
G1 X13.269 Y42.304 E3.71289
G1 X12.829 Y42.058 E3.73211
G1 X12.259 Y41.7 E3.75777
G1 X11.742 Y41.328 E3.78205
G1 X11.369 Y40.991 E3.80122
G1 X10.897 Y40.519 E3.82667
G1 X10.476 Y40.041 E3.85095
G1 X10.19 Y39.631 E3.87001
G1 X9.831 Y39.06 E3.89572
G1 X9.526 Y38.501 E3.92
G1 X9.337 Y38.036 E3.93914
G1 X9.114 Y37.399 E3.96487
G1 X8.942 Y36.786 E3.98914
G1 X8.86 Y36.285 E4.0085
G1 X8.786 Y35.622 E4.03393
G1 X8.755 Y35.059 E4.05543
G1 X8.755 Y21.059 E4.58917
G1 X8.786 Y20.499 E4.61055
G1 X8.86 Y19.833 E4.6361
G1 X8.97 Y19.205 E4.6604
G1 X9.114 Y18.716 E4.67984
G1 X9.337 Y18.079 E4.70557
G1 X9.585 Y17.492 E4.72986
G1 X9.831 Y17.055 E4.74898
G1 X10.19 Y16.484 E4.7747
G1 X10.562 Y15.967 E4.79898
G1 X10.897 Y15.596 E4.81803
G1 X11.326 Y15.167 E4.84116
G0 F1620 X11.369 Y15.124
G0 X11.847 Y14.703
G0 F4320 X12.079 Y14.967
G1 F2400 E4.86774
G1 F1800 X12.445 Y14.712 E4.88474
G1 X13.015 Y14.354 E4.91041
G1 X13.555 Y14.061 E4.93383
G1 X13.971 Y13.894 E4.95092
G1 X14.607 Y13.672 E4.9766
G1 X15.199 Y13.508 E5.00002
G1 X15.64 Y13.437 E5.01705
G1 X16.312 Y13.362 E5.04283
G1 X16.836 Y13.333 E5.06284
G1 X41.329 Y13.333 E5.99662
G1 X41.856 Y13.363 E6.01674
G1 X42.524 Y13.438 E6.04237
G1 X43.129 Y13.546 E6.0658
G1 X43.556 Y13.673 E6.08278
G1 X44.191 Y13.895 E6.10843
G1 X44.757 Y14.135 E6.13187
G1 X45.142 Y14.352 E6.14871
G1 X45.713 Y14.71 E6.17441
G1 X46.211 Y15.069 E6.19781
G1 X46.544 Y15.372 E6.21498
G1 X47.016 Y15.844 E6.24043
G1 X47.421 Y16.306 E6.26385
G1 X47.678 Y16.675 E6.28099
G1 X48.036 Y17.246 E6.30669
G1 X48.328 Y17.787 E6.33012
G1 X48.493 Y18.195 E6.3469
G1 X48.716 Y18.832 E6.37263
G1 X48.881 Y19.424 E6.39606
G1 X48.952 Y19.87 E6.41328
G1 X49.026 Y20.534 E6.43875
G1 X49.055 Y21.057 E6.45872
G1 X49.055 Y35.057 E6.99246
G1 X49.026 Y35.58 E7.01243
G1 X48.952 Y36.245 E7.03794
G1 X48.844 Y36.85 E7.06137
G1 X48.716 Y37.283 E7.07859
G1 X48.493 Y37.92 E7.10432
G1 X48.252 Y38.486 E7.12777
G1 X48.036 Y38.869 E7.14453
G1 X47.678 Y39.44 E7.17023
G1 X47.319 Y39.938 E7.19363
G1 X47.016 Y40.271 E7.2108
G1 X46.544 Y40.743 E7.23625
G1 X46.082 Y41.148 E7.25967
G1 X45.713 Y41.405 E7.27681
G1 X45.142 Y41.763 E7.30251
G1 X44.601 Y42.055 E7.32594
G1 X44.191 Y42.22 E7.34279
G1 X43.556 Y42.442 E7.36844
G1 X42.964 Y42.607 E7.39187
G1 X42.531 Y42.677 E7.40859
G1 X41.863 Y42.753 E7.43422
G1 X41.329 Y42.783 E7.45461
G1 X16.831 Y42.783 E8.38859
G1 X16.296 Y42.753 E8.40901
G1 X15.629 Y42.677 E8.43461
G1 X15.024 Y42.568 E8.45804
G1 X14.607 Y42.443 E8.47464
G1 X13.971 Y42.221 E8.50032
G1 X13.405 Y41.981 E8.52376
G1 X13.015 Y41.761 E8.54083
G1 X12.445 Y41.403 E8.56649
G1 X11.947 Y41.043 E8.58992
G1 X11.617 Y40.743 E8.60692
G1 X11.145 Y40.271 E8.63237
G1 X10.74 Y39.809 E8.6558
G1 X10.486 Y39.445 E8.67272
G1 X10.127 Y38.874 E8.69843
G1 X9.834 Y38.334 E8.72185
G1 X9.667 Y37.92 E8.73887
G1 X9.444 Y37.283 E8.7646
G1 X9.279 Y36.691 E8.78803
G1 X9.208 Y36.246 E8.80521
G1 X9.134 Y35.583 E8.83065
G1 X9.105 Y35.059 E8.85065
G1 X9.105 Y21.059 E9.3844
G1 X9.134 Y20.537 E9.40433
G1 X9.208 Y19.871 E9.42988
G1 X9.315 Y19.266 E9.4533
G1 X9.444 Y18.832 E9.47056
G1 X9.667 Y18.195 E9.49629
G1 X9.908 Y17.629 E9.51974
G1 X10.127 Y17.241 E9.53673
G1 X10.486 Y16.67 E9.56244
G1 X10.846 Y16.172 E9.58587
G1 X11.145 Y15.844 E9.60279
G1 X11.559 Y15.43 E9.62511
G0 F1620 X11.617 Y15.372
G0 X12.079 Y14.967
G0 F4320 X12.31 Y15.231
G1 F2400 E9.65169
G1 F1800 X12.631 Y15.008 E9.66659
G1 X13.201 Y14.65 E9.69225
G1 X13.722 Y14.37 E9.7148
G1 X14.086 Y14.224 E9.72975
G1 X14.722 Y14.002 E9.75543
G1 X15.292 Y13.846 E9.77796
G1 X15.679 Y13.785 E9.7929
G1 X16.351 Y13.71 E9.81868
G1 X16.836 Y13.683 E9.8372
G1 X41.329 Y13.683 E10.77098
G1 X41.817 Y13.71 E10.78961
G1 X42.485 Y13.785 E10.81524
G1 X43.067 Y13.891 E10.83779
G1 X43.441 Y14.003 E10.85268
G1 X44.076 Y14.225 E10.87832
G1 X44.62 Y14.458 E10.90088
G1 X44.956 Y14.648 E10.9156
G1 X45.527 Y15.006 E10.94129
G1 X46.006 Y15.354 E10.96387
G1 X46.297 Y15.619 E10.97887
G1 X46.769 Y16.091 E11.00432
G1 X47.157 Y16.537 E11.02686
G1 X47.382 Y16.861 E11.0419
G1 X47.74 Y17.432 E11.06759
G1 X48.019 Y17.953 E11.09012
G1 X48.162 Y18.31 E11.10478
G1 X48.385 Y18.947 E11.13051
G1 X48.542 Y19.517 E11.15305
G1 X48.604 Y19.908 E11.16815
G1 X48.678 Y20.572 E11.19362
G1 X48.705 Y21.057 E11.21214
G1 X48.705 Y35.057 E11.74588
G1 X48.678 Y35.541 E11.76436
G1 X48.604 Y36.206 E11.78987
G1 X48.499 Y36.788 E11.81241
G1 X48.385 Y37.168 E11.82754
G1 X48.162 Y37.805 E11.85327
G1 X47.93 Y38.348 E11.87578
G1 X47.74 Y38.683 E11.89047
G1 X47.382 Y39.254 E11.91616
G1 X47.034 Y39.733 E11.93873
G1 X46.769 Y40.024 E11.95374
G1 X46.297 Y40.496 E11.97918
G1 X45.851 Y40.884 E12.00172
G1 X45.527 Y41.109 E12.01676
G1 X44.956 Y41.467 E12.04245
G1 X44.435 Y41.746 E12.06499
G1 X44.076 Y41.89 E12.07973
G1 X43.441 Y42.112 E12.10538
G1 X42.871 Y42.269 E12.12792
G1 X42.492 Y42.329 E12.14255
G1 X41.824 Y42.405 E12.16818
G1 X41.329 Y42.433 E12.18708
G1 X16.831 Y42.433 E13.12105
G1 X16.336 Y42.405 E13.13996
G1 X15.669 Y42.329 E13.16555
G1 X15.087 Y42.222 E13.18811
G1 X14.722 Y42.113 E13.20263
G1 X14.086 Y41.891 E13.22831
G1 X13.542 Y41.658 E13.25088
G1 X13.201 Y41.465 E13.26581
G1 X12.631 Y41.107 E13.29148
G1 X12.153 Y40.759 E13.31402
G1 X11.864 Y40.496 E13.32891
G1 X11.392 Y40.024 E13.35436
G1 X11.004 Y39.578 E13.3769
G1 X10.782 Y39.259 E13.39172
G1 X10.423 Y38.688 E13.41743
G1 X10.143 Y38.167 E13.43998
G1 X9.998 Y37.805 E13.45485
G1 X9.775 Y37.168 E13.48058
G1 X9.618 Y36.598 E13.50312
G1 X9.556 Y36.207 E13.51821
G1 X9.482 Y35.544 E13.54364
G1 X9.455 Y35.059 E13.56216
G1 X9.455 Y21.059 E14.09591
G1 X9.482 Y20.576 E14.11435
G1 X9.556 Y19.91 E14.1399
G1 X9.661 Y19.328 E14.16244
G1 X9.775 Y18.947 E14.1776
G1 X9.998 Y18.31 E14.20333
G1 X10.23 Y17.767 E14.22585
G1 X10.423 Y17.427 E14.24075
G1 X10.782 Y16.856 E14.26647
G1 X11.13 Y16.378 E14.28901
G1 X11.392 Y16.091 E14.30382
G1 X11.789 Y15.694 E14.32523
G0 F1620 X11.864 Y15.619
G0 X12.31 Y15.231
G0 F4320 X12.54 Y15.495
G1 F2400 E14.3518
G1 F1800 X12.817 Y15.305 E14.36461
G1 X13.387 Y14.947 E14.39027
G1 X13.888 Y14.679 E14.41193
G1 X14.202 Y14.555 E14.4248
G1 X14.838 Y14.333 E14.45048
G1 X15.385 Y14.184 E14.47209
G1 X15.718 Y14.133 E14.48494
G1 X16.39 Y14.058 E14.51072
G1 X16.836 Y14.033 E14.52775
G1 X41.329 Y14.033 E15.46153
G1 X41.778 Y14.058 E15.47867
G1 X42.446 Y14.133 E15.5043
G1 X43.004 Y14.236 E15.52593
G1 X43.325 Y14.334 E15.53873
G1 X43.96 Y14.556 E15.56437
G1 X44.481 Y14.78 E15.586
G1 X44.77 Y14.945 E15.59868
G1 X45.341 Y15.303 E15.62438
G1 X45.799 Y15.637 E15.64599
G1 X46.049 Y15.867 E15.65894
G1 X46.521 Y16.339 E15.68439
G1 X46.893 Y16.767 E15.70601
G1 X47.085 Y17.047 E15.71895
G1 X47.443 Y17.618 E15.74464
G1 X47.71 Y18.118 E15.76625
G1 X47.832 Y18.426 E15.77888
G1 X48.055 Y19.063 E15.80461
G1 X48.204 Y19.61 E15.82623
G1 X48.256 Y19.947 E15.83923
G1 X48.33 Y20.611 E15.8647
G1 X48.355 Y21.057 E15.88173
G1 X48.355 Y35.057 E16.41547
G1 X48.33 Y35.502 E16.43246
G1 X48.256 Y36.167 E16.45797
G1 X48.154 Y36.725 E16.4796
G1 X48.055 Y37.052 E16.49262
G1 X47.832 Y37.689 E16.51835
G1 X47.607 Y38.21 E16.53999
G1 X47.443 Y38.497 E16.55259
G1 X47.085 Y39.068 E16.57829
G1 X46.751 Y39.526 E16.5999
G1 X46.521 Y39.776 E16.61285
G1 X46.049 Y40.248 E16.6383
G1 X45.621 Y40.62 E16.65992
G1 X45.341 Y40.812 E16.67286
G1 X44.77 Y41.17 E16.69855
G1 X44.27 Y41.437 E16.72016
G1 X43.96 Y41.559 E16.73286
G1 X43.325 Y41.781 E16.75851
G1 X42.778 Y41.93 E16.78012
G1 X42.452 Y41.981 E16.7927
G1 X41.784 Y42.057 E16.81833
G1 X41.329 Y42.083 E16.83571
G1 X16.831 Y42.083 E17.76968
G1 X16.375 Y42.057 E17.78709
G1 X15.708 Y41.981 E17.81269
G1 X15.151 Y41.877 E17.83429
G1 X14.838 Y41.782 E17.84676
G1 X14.202 Y41.56 E17.87244
G1 X13.681 Y41.336 E17.89406
G1 X13.387 Y41.168 E17.90697
G1 X12.817 Y40.81 E17.93263
G1 X12.359 Y40.476 E17.95425
G1 X12.112 Y40.248 E17.96706
G1 X11.64 Y39.776 E17.99251
G1 X11.268 Y39.348 E18.01413
G1 X11.079 Y39.072 E18.02688
G1 X10.72 Y38.501 E18.0526
G1 X10.452 Y38.001 E18.07422
G1 X10.328 Y37.689 E18.08702
G1 X10.105 Y37.052 E18.11275
G1 X9.956 Y36.505 E18.13437
G1 X9.904 Y36.168 E18.14737
G1 X9.83 Y35.505 E18.1728
G1 X9.805 Y35.059 E18.18983
G1 X9.805 Y21.059 E18.72357
G1 X9.83 Y20.615 E18.74053
G1 X9.904 Y19.949 E18.76607
G1 X10.006 Y19.391 E18.7877
G1 X10.105 Y19.063 E18.80076
G1 X10.328 Y18.426 E18.82649
G1 X10.553 Y17.905 E18.84813
G1 X10.72 Y17.614 E18.86092
G1 X11.079 Y17.043 E18.88663
G1 X11.413 Y16.585 E18.90825
G1 X11.64 Y16.339 E18.92101
G1 X12.021 Y15.958 E18.94155
G0 F1620 X12.112 Y15.867
G0 X12.54 Y15.495
G0 F4320 X12.77 Y15.761
G1 F2400 E18.96812
G1 F1800 X13.003 Y15.601 E18.9789
G1 X13.573 Y15.243 E19.00456
G1 X14.052 Y14.989 E19.02523
G1 X14.317 Y14.885 E19.03608
G1 X14.953 Y14.663 E19.06176
G1 X15.476 Y14.523 E19.0824
G1 X15.756 Y14.481 E19.0932
G1 X16.428 Y14.406 E19.11898
G1 X16.836 Y14.383 E19.13456
G1 X41.329 Y14.383 E20.06834
G1 X41.739 Y14.406 E20.08399
G1 X42.407 Y14.481 E20.10962
G1 X42.94 Y14.581 E20.1303
G1 X43.21 Y14.664 E20.14107
G1 X43.845 Y14.886 E20.16671
G1 X44.342 Y15.102 E20.18737
G1 X44.584 Y15.241 E20.19801
G1 X45.155 Y15.599 E20.2237
G1 X45.592 Y15.92 E20.24438
G1 X45.802 Y16.114 E20.25528
G1 X46.274 Y16.586 E20.28072
G1 X46.627 Y16.997 E20.30138
G1 X46.789 Y17.233 E20.31229
G1 X47.147 Y17.804 E20.33799
G1 X47.4 Y18.283 E20.35864
G1 X47.502 Y18.542 E20.36925
G1 X47.725 Y19.179 E20.39498
G1 X47.865 Y19.702 E20.41562
G1 X47.908 Y19.986 E20.42657
G1 X47.982 Y20.65 E20.45205
G1 X48.005 Y21.057 E20.46759
G1 X48.005 Y35.057 E21.00133
G1 X47.982 Y35.463 E21.01683
G1 X47.908 Y36.128 E21.04234
G1 X47.809 Y36.661 E21.06301
G1 X47.725 Y36.936 E21.07397
G1 X47.502 Y37.573 E21.0997
G1 X47.285 Y38.07 E21.12038
G1 X47.147 Y38.311 E21.13097
G1 X46.789 Y38.882 E21.15666
G1 X46.468 Y39.319 E21.17733
G1 X46.274 Y39.529 E21.18823
G1 X45.802 Y40.001 E21.21368
G1 X45.391 Y40.354 E21.23433
G1 X45.155 Y40.516 E21.24525
G1 X44.584 Y40.874 E21.27094
G1 X44.105 Y41.127 E21.29159
G1 X43.845 Y41.229 E21.30224
G1 X43.21 Y41.451 E21.32789
G1 X42.687 Y41.592 E21.34854
G1 X42.412 Y41.633 E21.35914
G1 X41.744 Y41.709 E21.38477
G1 X41.329 Y41.733 E21.40062
G1 X16.831 Y41.733 E22.33459
G1 X16.415 Y41.709 E22.35048
G1 X15.748 Y41.633 E22.37607
G1 X15.216 Y41.533 E22.39671
G1 X14.953 Y41.452 E22.4072
G1 X14.317 Y41.23 E22.43288
G1 X13.82 Y41.014 E22.45354
G1 X13.573 Y40.872 E22.4644
G1 X13.003 Y40.514 E22.49006
G1 X12.567 Y40.193 E22.51071
G1 X12.359 Y40.001 E22.5215
G1 X11.887 Y39.529 E22.54695
G1 X11.534 Y39.118 E22.5676
G1 X11.375 Y38.886 E22.57832
G1 X11.016 Y38.315 E22.60404
G1 X10.762 Y37.836 E22.62471
G1 X10.658 Y37.573 E22.63549
G1 X10.435 Y36.936 E22.66122
G1 X10.295 Y36.413 E22.68186
G1 X10.252 Y36.13 E22.69277
G1 X10.178 Y35.467 E22.71821
G1 X10.155 Y35.059 E22.73379
G1 X10.155 Y21.059 E23.26753
G1 X10.177 Y20.653 E23.28303
G1 X10.251 Y19.987 E23.30858
G1 X10.351 Y19.455 E23.32922
G1 X10.435 Y19.179 E23.34021
G1 X10.658 Y18.542 E23.36594
G1 X10.875 Y18.045 E23.38662
G1 X11.016 Y17.8 E23.3974
G1 X11.375 Y17.229 E23.42311
G1 X11.696 Y16.793 E23.44375
G1 X11.887 Y16.586 E23.45449
G1 X12.249 Y16.224 E23.47401
G0 F1620 X12.359 Y16.114
G0 X12.77 Y15.761
G0 F4320 X13.19 Y15.897
G1 F2400 E23.50058
G1 F1800 X13.76 Y15.539 E23.52624
G1 X14.432 Y15.216 E23.55467
G1 X15.068 Y14.994 E23.58035
G1 X15.795 Y14.829 E23.60877
G1 X16.467 Y14.754 E23.63455
G1 X16.836 Y14.733 E23.64864
G1 X41.329 Y14.733 E24.58242
G1 X41.7 Y14.754 E24.59659
G1 X42.368 Y14.829 E24.62222
G1 X43.094 Y14.994 E24.6506
G1 X43.729 Y15.216 E24.67625
G1 X44.398 Y15.538 E24.70455
G1 X44.969 Y15.896 E24.73025
G1 X45.554 Y16.362 E24.75876
G1 X46.026 Y16.834 E24.78421
G1 X46.492 Y17.419 E24.81272
G1 X46.85 Y17.99 E24.83842
G1 X47.171 Y18.657 E24.86664
G1 X47.394 Y19.294 E24.89237
G1 X47.561 Y20.025 E24.92095
G1 X47.635 Y20.689 E24.94642
G1 X47.655 Y21.057 E24.96048
G1 X47.655 Y35.057 E25.49422
G1 X47.635 Y35.425 E25.50827
G1 X47.561 Y36.09 E25.53378
G1 X47.394 Y36.821 E25.56236
G1 X47.171 Y37.458 E25.58809
G1 X46.85 Y38.125 E25.61631
G1 X46.492 Y38.696 E25.64201
G1 X46.026 Y39.281 E25.67052
G1 X45.554 Y39.753 E25.69597
G1 X44.969 Y40.219 E25.72449
G1 X44.398 Y40.577 E25.75018
G1 X43.729 Y40.899 E25.77848
G1 X43.094 Y41.121 E25.80413
G1 X42.373 Y41.286 E25.83233
G1 X41.705 Y41.362 E25.85796
G1 X41.329 Y41.383 E25.87232
G1 X16.831 Y41.383 E26.80629
G1 X16.455 Y41.362 E26.82065
G1 X15.788 Y41.286 E26.84624
G1 X15.068 Y41.121 E26.8744
G1 X14.432 Y40.899 E26.90008
G1 X13.76 Y40.576 E26.92851
G1 X13.19 Y40.218 E26.95417
G1 X12.607 Y39.753 E26.9826
G1 X12.135 Y39.281 E27.00805
G1 X11.671 Y38.7 E27.0364
G1 X11.312 Y38.129 E27.06211
G1 X10.989 Y37.458 E27.0905
G1 X10.766 Y36.821 E27.11623
G1 X10.6 Y36.091 E27.14477
G1 X10.526 Y35.428 E27.17021
G1 X10.505 Y35.059 E27.1843
G1 X10.505 Y21.059 E27.71804
G1 X10.525 Y20.692 E27.73205
G1 X10.599 Y20.026 E27.7576
G1 X10.766 Y19.294 E27.78622
G1 X10.989 Y18.657 E27.81195
G1 X11.312 Y17.986 E27.84034
G1 X11.671 Y17.415 E27.86606
G1 X12.135 Y16.834 E27.89441
G1 X12.607 Y16.362 E27.91985
G1 X12.645 Y16.332 E27.9217
G0 F1620 X13.19 Y15.897
G0 F4320 X13.376 Y16.194
G1 F2400 E27.94827
G1 F1800 X13.946 Y15.836 E27.97393
G1 X14.548 Y15.546 E27.99941
G1 X15.184 Y15.324 E28.02509
G1 X15.834 Y15.176 E28.05051
G1 X16.506 Y15.101 E28.07629
G1 X16.836 Y15.083 E28.08889
G1 X41.329 Y15.083 E29.02267
G1 X41.661 Y15.102 E29.03534
G1 X42.329 Y15.177 E29.06097
G1 X42.979 Y15.325 E29.08639
G1 X43.614 Y15.547 E29.11203
G1 X44.212 Y15.834 E29.13732
G1 X44.783 Y16.192 E29.16301
G1 X45.307 Y16.609 E29.18855
G1 X45.779 Y17.081 E29.21399
G1 X46.196 Y17.605 E29.23953
G1 X46.554 Y18.176 E29.26522
G1 X46.841 Y18.773 E29.29047
G1 X47.064 Y19.41 E29.3162
G1 X47.213 Y20.063 E29.34174
G1 X47.287 Y20.727 E29.36721
G1 X47.305 Y21.057 E29.37981
